X:1
T:Gånglåt
R:Gånglåt
S:Efter tobaksspinnare Erik Eriksson
O:Nås, Dalarna
Z:Konrad Skeri Ekblad
L:1/8
M:C|
I:linebreak <EOL>
K:G
Bc | d2 AB c2 BA | A2 GF G2 AB | c2 e2 dcBc | A6 ::
AB | cBcd e2 dc | BABc d2 Bd | c2 AG F2 EF | G6:|]

